www/assets/icons/notifications.svg

<svg xmlns="http://www.w3.org/2000/svg" width="24" height="24" viewBox="0 0 24 24" fill='currentColor'><path d="M12 21.75c1.1 0 2-.9 2-2h-4a2 2 0 0 0 2 2m6-6v-5c0-3.07-1.64-5.64-4.5-6.32v-.68c0-.83-.67-1.5-1.5-1.5s-1.5.67-1.5 1.5v.68C7.63 5.11 6 7.67 6 10.75v5l-2 2v1h16v-1z"/></svg>

<svg width="24" height="24" viewBox="0 0 24 24" xmlns="http://www.w3.org/2000/svg" fill='currentColor'><path d="M12 21.75C13.1 21.75 14 20.85 14 19.75H10C10 20.85 10.89 21.75 12 21.75ZM18 15.75V10.75C18 7.68 16.36 5.11 13.5 4.43V3.75C13.5 2.92 12.83 2.25 12 2.25C11.17 2.25 10.5 2.92 10.5 3.75V4.43C7.63 5.11 6 7.67 6 10.75V15.75L4 17.75V18.75H20V17.75L18 15.75Z"/></svg>
